symbols/web/1x_mobiledata/materialsymbolsoutlined/1x_mobiledata_wght500gradN25_48px.svg

<svg xmlns="http://www.w3.org/2000/svg" height="48" width="48"><path d="M12.05 33.85V17.3h-3.9v-3.2h7.05v19.75Zm9.65 0 6.4-10.5-5.7-9.25h3.7l3.85 6.4 3.7-6.4h3.65l-5.45 9.25 6.25 10.5h-3.65l-4.5-7.65-4.5 7.65Z"/></svg>

<svg xmlns="http://www.w3.org/2000/svg" height="48" width="48"><path d="M12.05 33.85V17.3H8.15V14.1H15.2V33.85ZM21.7 33.85 28.1 23.35 22.4 14.1H26.1L29.95 20.5L33.65 14.1H37.3L31.85 23.35L38.1 33.85H34.45L29.95 26.2L25.45 33.85Z"/></svg>
